_includes/icons/color-idea.svg

<svg fill="#666" height="50" viewBox="0 0 48 48" width="50" xmlns="http://www.w3.org/2000/svg"><path d="m44 22c0 11.046875-8.953125 20-20 20s-20-8.953125-20-20 8.953125-20 20-20 20 8.953125 20 20z" fill="#fff59d"/><path d="m37 22c0-7.699219-6.601562-13.800781-14.5-12.898437-6 .699218-10.800781 5.5-11.398437 11.5-.5 4.597656 1.398437 8.699218 4.597656 11.296875 1.402344 1.203125 2.300781 2.902343 2.300781 4.800781v.300781h12v-.101562c0-1.796875.800781-3.597657 2.199219-4.796875 2.902344-2.402344 4.800781-6 4.800781-10.101563z" fill="#fbc02d"/><path d="m30.601563 20.199219-3-2c-.300782-.199219-.800782-.199219-1.101563 0l-2.5 1.601562-2.398437-1.601562c-.300782-.199219-.800782-.199219-1.101563 0l-3 2c-.199219.199219-.398437.402344-.398437.699219 0 .300781 0 .601562.199218.800781l3.800782 4.699219v10.601562h2v-11c0-.199219-.101563-.398437-.203125-.601562l-3.296875-4.097657 1.5-1 2.398437 1.597657c.300781.203125.800781.203125 1.101563 0l2.398437-1.597657 1.5 1-3.300781 4.097657c-.097656.203125-.199219.402343-.199219.601562v11h2v-10.601562l3.800781-4.699219c.199219-.199219.300782-.5.199219-.800781-.101562-.296875-.199219-.597657-.398437-.699219z" fill="#fff59d"/><path d="m27 44c0 1.65625-1.34375 3-3 3s-3-1.34375-3-3 1.34375-3 3-3 3 1.34375 3 3z" fill="#5c6bc0"/><path d="m26 45h-4c-2.199219 0-4-1.800781-4-4v-5h12v5c0 2.199219-1.800781 4-4 4z" fill="#9fa8da"/><g fill="#5c6bc0"><path d="m30 41-11.601562 1.601563c.300781.699218.902343 1.398437 1.601562 1.796875l9.398438-1.296875c.402343-.601563.601562-1.300782.601562-2.101563z"/><path d="m18 38.699219v2l12-1.699219v-2z"/></g></svg>

<svg xmlns="http://www.w3.org/2000/svg" viewBox="0 0 48 48" width="50" height="50" fill="#666"><path d="M 44 22 C 44 33.046875 35.046875 42 24 42 C 12.953125 42 4 33.046875 4 22 C 4 10.953125 12.953125 2 24 2 C 35.046875 2 44 10.953125 44 22 Z" fill="#fff59d"/><path d="M 37 22 C 37 14.300781 30.398438 8.199219 22.5 9.101563 C 16.5 9.800781 11.699219 14.601563 11.101563 20.601563 C 10.601563 25.199219 12.5 29.300781 15.699219 31.898438 C 17.101563 33.101563 18 34.800781 18 36.699219 L 18 37 L 30 37 L 30 36.898438 C 30 35.101563 30.800781 33.300781 32.199219 32.101563 C 35.101563 29.699219 37 26.101563 37 22 Z" fill="#fbc02d"/><path d="M 30.601563 20.199219 L 27.601563 18.199219 C 27.300781 18 26.800781 18 26.5 18.199219 L 24 19.800781 L 21.601563 18.199219 C 21.300781 18 20.800781 18 20.5 18.199219 L 17.5 20.199219 C 17.300781 20.398438 17.101563 20.601563 17.101563 20.898438 C 17.101563 21.199219 17.101563 21.5 17.300781 21.699219 L 21.101563 26.398438 L 21.101563 37 L 23.101563 37 L 23.101563 26 C 23.101563 25.800781 23 25.601563 22.898438 25.398438 L 19.601563 21.300781 L 21.101563 20.300781 L 23.5 21.898438 C 23.800781 22.101563 24.300781 22.101563 24.601563 21.898438 L 27 20.300781 L 28.5 21.300781 L 25.199219 25.398438 C 25.101563 25.601563 25 25.800781 25 26 L 25 37 L 27 37 L 27 26.398438 L 30.800781 21.699219 C 31 21.5 31.101563 21.199219 31 20.898438 C 30.898438 20.601563 30.800781 20.300781 30.601563 20.199219 Z" fill="#fff59d"/><path d="M 27 44 C 27 45.65625 25.65625 47 24 47 C 22.34375 47 21 45.65625 21 44 C 21 42.34375 22.34375 41 24 41 C 25.65625 41 27 42.34375 27 44 Z" fill="#5c6bc0"/><path d="M 26 45 L 22 45 C 19.800781 45 18 43.199219 18 41 L 18 36 L 30 36 L 30 41 C 30 43.199219 28.199219 45 26 45 Z" fill="#9fa8da"/><path d="M 30 41 L 18.398438 42.601563 C 18.699219 43.300781 19.300781 44 20 44.398438 L 29.398438 43.101563 C 29.800781 42.5 30 41.800781 30 41 Z" fill="#5c6bc0"/><path d="M 18 38.699219 L 18 40.699219 L 30 39 L 30 37 Z" fill="#5c6bc0"/></svg>
